icons/dark/root-folder.svg

<svg width="16" height="16" viewBox="0 0 16 16" fill="none" xmlns="http://www.w3.org/2000/svg">
<path fill-rule="evenodd" clip-rule="evenodd" d="M1.51087 2L1.01087 2.5V6.24821C1.31813 5.99577 1.65323 5.77599 2.01087 5.59417V3H6.30003L7.15283 3.8528L7.50638 3.99925H14.0011V5.00311H7.50051L7.14695 5.14956L6.79587 5.50064C7.11147 5.64581 7.41097 5.81999 7.69096 6.01976L7.70761 6.00311H13.9903V7.49588H13.9906V11.4929H13.9903V13.0021H9.39923C9.21613 13.3599 8.99498 13.695 8.74113 14.0021H14.4903L14.9903 13.5021V9.00599L15.0011 8.99512V3.49925L14.5011 2.99925H7.71349L6.86069 2.14645L6.50713 2H1.51087Z" fill="#C5C5C5"/>
<path d="M6 10.5C6 11.3284 5.32843 12 4.5 12C3.67157 12 3 11.3284 3 10.5C3 9.67157 3.67157 9 4.5 9C5.32843 9 6 9.67157 6 10.5Z" fill="#C4C4C4"/>
<path fill-rule="evenodd" clip-rule="evenodd" d="M8 10.5C8 12.433 6.433 14 4.5 14C2.567 14 1 12.433 1 10.5C1 8.567 2.567 7 4.5 7C6.433 7 8 8.567 8 10.5ZM4.5 13C5.88071 13 7 11.8807 7 10.5C7 9.11929 5.88071 8 4.5 8C3.11929 8 2 9.11929 2 10.5C2 11.8807 3.11929 13 4.5 13Z" fill="#C4C4C4"/>
</svg>

<svg xmlns="http://www.w3.org/2000/svg" width="16" height="16" fill="#c5c5c5" xmlns:v="https://vecta.io/nano"><path fill-rule="evenodd" d="M1.511 2l-.5.5v3.748c.307-.252.642-.472 1-.654V3H6.3l.853.853.354.146h6.495v1.004H7.501l-.354.146-.351.351c.316.145.615.319.895.519l.017-.017h6.283v1.493h0v3.997h0v1.509H9.399a5.51 5.51 0 0 1-.658 1h5.749l.5-.5V9.006l.011-.011V3.499l-.5-.5H7.713l-.853-.853L6.507 2H1.511z"/><path d="M6 10.5a1.5 1.5 0 1 1-3 0 1.5 1.5 0 1 1 3 0z"/><path fill-rule="evenodd" d="M8 10.5a3.5 3.5 0 1 1-7 0 3.5 3.5 0 1 1 7 0zM4.5 13a2.5 2.5 0 1 0 0-5 2.5 2.5 0 1 0 0 5z"/></svg>
